X:81
T:Millfield
M:6/8
L:1/8
K:G
G | A2 B c>BA | B2 G d2 B | A2 F D2 D | E F2 G2 ||
B | A F3 D2 B | d B2 G2 B | A F2 D2 D | E2 F G2 ||
%
%
